icon_installer/data/icons/scalable/actions/show-large-brush-symbolic.svg

<?xml version="1.0" encoding="UTF-8"?>
<svg height="16px" viewBox="0 0 16 16" width="16px" xmlns="http://www.w3.org/2000/svg">
    <path d="m 8 0 c -1.109375 0 -2 0.890625 -2 2 v 3.003906 c 0 0.632813 -0.480469 0.996094 -1 0.996094 h -1 c -1.109375 0 -2 0.890625 -2 2 v 2 h 1 v 3 c 0 2 -1.96875 3 -2.984375 3 h 10 c 0.921875 0 2.984375 -1 2.984375 -3.015625 v -2.984375 h 1 v -2 c 0 -1.109375 -0.890625 -2 -2 -2 h -0.976562 c -0.53125 0 -1.023438 -0.359375 -1.023438 -1 v -3 c 0 -1.109375 -0.890625 -2 -2 -2 z m 0 1.40625 c 0.328125 0 0.59375 0.265625 0.59375 0.59375 s -0.265625 0.59375 -0.59375 0.59375 s -0.59375 -0.265625 -0.59375 -0.59375 s 0.265625 -0.59375 0.59375 -0.59375 z m -3.3125 8.59375 h 0.3125 v 4 z m 2 0 h 0.3125 v 3 z m 2 0 h 0.3125 v 3 z m 2 0 h 0.3125 v 2 z m 0 0" fill="#222222"/>
</svg>

<svg xmlns="http://www.w3.org/2000/svg" width="16" height="16"><path fill="#222" d="M8 0C6.89 0 6 .89 6 2v3.004C6 5.637 5.52 6 5 6H4c-1.11 0-2 .89-2 2v2h1v3c0 2-1.969 3-2.984 3h10C10.937 16 13 15 13 12.984V10h1V8c0-1.11-.89-2-2-2h-.977C10.493 6 10 5.64 10 5V2c0-1.11-.89-2-2-2zm0 1.406a.593.593 0 1 1 0 1.187.593.593 0 0 1 0-1.187zM4.687 10H5v4zm2 0H7v3zm2 0H9v3zm2 0H11v2zm0 0"/></svg>
